X: 118203
T: LINK HIM DODDIE
Q: "Strathspey."
R: Strathspey.
%R: strathspey
B: James Kerr "Merry Melodies" v.1 p.18 s.2 #3
Z: 2017 John Chambers <jc:trillian.mit.edu>
M: C
L: 1/16
K: A
|:\
vAue3 ve3ud (cA3) c4 | B=g3 g3d (B=G3) (Bd3) |\
ABcd ve3uA (cA3) c4 | Aa3 gb3 a3A ce3 :|\
vagfe vc3va ue3ua c4 | (uB=g3) vg3ud B=G3 B3u^g |
agfe ca3 ea3 ca3 | Aa3 ca3 eA3 ce3 |\
vagfe vf3vd ue3ud c4 | (uB=g3) vg3ud B=G3 Bd3 |\
vABcd ve3vA uc3uA c4 | (uAa3) gb3 a2A2 ce3 |]

%%sep 1 1 500
%%sep 1 1 500

